X:21
T:Retour des Hirondelles
N:First 16 bars only
S:Sharon Shannon
D:Sharon Shannon
Z: id:ng-other-21 Transcribed by Alan Ng alan@alan-ng.nospam (net) 23 Sept. 2002
K:Eb
M:3/4
|B=AB ede|g^fg b2=b|c'3c' c'2|c'3G A=A|BAB ede|g^fg b=b|c'3c' c'2|c'3c fg|~a2 ab ag|~f3g fe|\
d3d d2|d3e d_d|~c3f (3gff|~c3d c_c|BB, Be ge|~B3A GA|
